packages/match-logos/mono/svg/uber.svg

<svg fill="none" height="36" viewBox="0 0 104 36" width="104" xmlns="http://www.w3.org/2000/svg"><g fill="#1f304c"><path d="m14.0062 31.2477c4.904 0 8.6958-3.7926 8.6958-9.4049v-21.8428h5.3079v35.3937h-5.2573v-3.2868c-2.3761 2.4773-5.662 3.893-9.3535 3.893-7.58447 0-13.3991-5.511-13.3991-13.8502v-22.14389389h5.30789v21.83699389c0 5.7135 3.74123 9.4049 8.69661 9.4049"/><path d="m31.9552.00085449h5.1064v12.89314551c1.1909-1.2198 2.6144-2.1885 4.1862-2.8486 1.5718-.66015 3.2601-.99835 4.9649-.9946 7.5845 0 13.5501 6.017 13.5501 13.5003 0 7.4327-5.9656 13.4489-13.5501 13.4489-1.713.0046-3.4096-.3329-4.9905-.9927-1.5808-.6598-3.014-1.6287-4.2154-2.8498v3.2345h-5.059zm13.9042 31.49984551c4.8542 0 8.8484-3.995 8.8484-8.9496 0-5.006-3.9942-8.9496-8.8484-8.9496-4.9048 0-8.899 3.9436-8.899 8.9496 0 4.9546 3.9436 8.9496 8.899 8.9496z"/><path d="m75.0337 9.10138c7.4319 0 12.8932 5.71342 12.8932 13.39912v1.6687h-20.9803c.7083 4.1965 4.1966 7.3315 8.5424 7.3315 2.9857 0 5.5119-1.2142 7.4327-3.7927l3.6915 2.7303c-2.5793 3.4385-6.4217 5.5111-11.1242 5.5111-7.7354 0-13.7018-5.7641-13.7018-13.4489 0-7.2809 5.7134-13.39912 13.2473-13.39912zm-7.9884 11.02302h15.7246c-.8592-3.9444-4.0447-6.5735-7.8366-6.5735-3.7918 0-6.9774 2.6291-7.888 6.5735z"/><path d="m101.629 14.158c-3.3377 0-5.7644 2.5785-5.7644 6.5727v14.6631h-5.1072v-25.78646h5.0591v3.18806c1.264-2.0734 3.3374-3.38793 6.1685-3.38793h1.769v4.75303z"/></g></svg>

<svg width="104" height="36" viewBox="0 0 104 36" fill="none" xmlns="http://www.w3.org/2000/svg">
<path d="M14.0062 31.2477C18.9102 31.2477 22.702 27.4551 22.702 21.8428V0H28.0099V35.3937H22.7526V32.1069C20.3765 34.5842 17.0906 35.9999 13.3991 35.9999C5.81463 35.9999 0 30.4889 0 22.1497V0.00580611H5.30789V21.8428C5.30789 27.5563 9.04912 31.2477 14.0045 31.2477" fill="#1F304C"/>
<path d="M31.9552 0.000854492H37.0616V12.894C38.2525 11.6742 39.676 10.7055 41.2478 10.0454C42.8196 9.38525 44.5079 9.04705 46.2127 9.0508C53.7972 9.0508 59.7628 15.0678 59.7628 22.5511C59.7628 29.9838 53.7972 36 46.2127 36C44.4997 36.0046 42.8031 35.6671 41.2222 35.0073C39.6414 34.3475 38.2082 33.3786 37.0068 32.1575V35.392H31.9478L31.9552 0.000854492ZM45.8594 31.5007C50.7136 31.5007 54.7078 27.5057 54.7078 22.5511C54.7078 17.5451 50.7136 13.6015 45.8594 13.6015C40.9546 13.6015 36.9604 17.5451 36.9604 22.5511C36.9604 27.5057 40.904 31.5007 45.8594 31.5007Z" fill="#1F304C"/>
<path d="M75.0337 9.10138C82.4656 9.10138 87.9269 14.8148 87.9269 22.5005V24.1692H66.9466C67.6549 28.3657 71.1432 31.5007 75.489 31.5007C78.4747 31.5007 81.0009 30.2865 82.9217 27.708L86.6132 30.4383C84.0339 33.8768 80.1915 35.9494 75.489 35.9494C67.7536 35.9494 61.7872 30.1853 61.7872 22.5005C61.7872 15.2196 67.5006 9.10138 75.0345 9.10138H75.0337ZM67.0453 20.1244H82.7699C81.9107 16.18 78.7252 13.5509 74.9333 13.5509C71.1415 13.5509 67.9559 16.18 67.0453 20.1244Z" fill="#1F304C"/>
<path d="M101.629 14.158C98.2913 14.158 95.8646 16.7365 95.8646 20.7307V35.3938H90.7574V9.60734H95.8165V12.7954C97.0805 10.722 99.1539 9.40747 101.985 9.40747H103.754V14.1605L101.629 14.158Z" fill="#1F304C"/>
</svg>
